Papirus/48x48/apps/distributor-logo-alpine.svg

<svg width="48" height="48" version="1.1" xmlns="http://www.w3.org/2000/svg">
 <path d="m14.883608 45c-1.214106 0-2.703528-0.876135-3.309786-1.946966l-9.1191292-16.106068c-0.6062584-1.070831-0.6062584-2.823101 0-3.893932l9.1191292-16.106068c0.606258-1.0708315 2.09568-1.9469663 3.309786-1.9469663h18.232784c1.214106 0 2.703527 0.8761348 3.309698 1.9469663l9.119217 16.106068c0.606259 1.070831 0.606259 2.823101 0 3.893932l-9.119129 16.106068c-0.60617 1.070831-2.095592 1.946966-3.309698 1.946966z" style="opacity:.2"/>
 <path d="m14.883608 44c-1.214106 0-2.703528-0.876135-3.309786-1.946966l-9.1191292-16.106068c-0.6062584-1.070831-0.6062584-2.823101 0-3.893932l9.1191292-16.106068c0.606258-1.0708315 2.09568-1.9469663 3.309786-1.9469663h18.232784c1.214106 0 2.703527 0.8761348 3.309698 1.9469663l9.119217 16.106068c0.606259 1.070831 0.606259 2.823101 0 3.893932l-9.119129 16.106068c-0.60617 1.070831-2.095592 1.946966-3.309698 1.946966z" style="fill:#0d597f"/>
 <path d="m14.882812 4c-1.214106 0-2.702335 0.8764341-3.308593 1.9472656l-9.1191409 16.105468c-0.3749786 0.662323-0.5166139 1.586044-0.4277343 2.447266 0.0548192-0.531186 0.1964545-1.038757 0.4277343-1.447266l9.1191409-16.105468c0.606258-1.0708315 2.094487-1.9472656 3.308593-1.9472656h18.234376c1.214106 0 2.702422 0.8764341 3.308593 1.9472656l9.119141 16.105468c0.23128 0.408509 0.372915 0.91608 0.427734 1.447266 0.08888-0.861222-0.05275-1.784943-0.427734-2.447266l-9.119141-16.105468c-0.606171-1.0708315-2.094487-1.9472656-3.308593-1.9472656z" style="fill:#ffffff;opacity:.1"/>
 <path d="m19 17.640625-11 12h5l6-7 6 7h5l-3.347656-3.652344 2.347656-2.347656 6 6h5l-11-11-5.085938 4.359375zm-1 9-3 3h3z" style="opacity:.2"/>
 <path d="m19 17-11 12h5l6-7 6 7h5l-3.347656-3.652344 2.347656-2.347656 6 6h5l-11-11-5.085938 4.359375-4.914062-5.359375zm-1 9-3 3h3v-3z" style="fill:#ffffff"/>
</svg>

<svg xmlns="http://www.w3.org/2000/svg" width="48" height="48" version="1.1">
 <path style="opacity:0.2" d="M 14.884,45 C 13.67,45 12.18,44.124 11.574,43.053 L 2.4547,26.947 C 1.8484,25.876 1.8484,24.124 2.4547,23.053 L 11.574,6.947 C 12.18,5.8761 13.67,5 14.884,5 H 33.116 C 34.33,5 35.82,5.8761 36.426,6.947 L 45.545,23.053 C 46.152,24.124 46.152,25.876 45.545,26.947 L 36.426,43.053 C 35.82,44.124 34.331,45 33.116,45 Z"/>
 <path style="fill:#0d597f" d="M 14.884,44 C 13.67,44 12.18,43.124 11.574,42.053 L 2.4547,25.947 C 1.8484,24.876 1.8484,23.124 2.4547,22.053 L 11.574,5.947 C 12.18,4.8761 13.67,4 14.884,4 H 33.116 C 34.33,4 35.82,4.8761 36.426,5.947 L 45.545,22.053 C 46.152,23.124 46.152,24.876 45.545,25.947 L 36.426,42.053 C 35.82,43.124 34.331,44 33.116,44 Z"/>
 <path style="opacity:0.1;fill:#ffffff" d="M 14.883,4 C 13.669,4 12.18,4.8764 11.574,5.9473 L 2.4551,22.053 C 2.0801,22.715 1.9385,23.639 2.0273,24.5 2.0822,23.969 2.2238,23.461 2.4551,23.053 L 11.574,6.9473 C 12.18,5.8764 13.669,5 14.883,5 H 33.117 C 34.331,5 35.82,5.8764 36.426,6.9473 L 45.545,23.053 C 45.776,23.461 45.918,23.969 45.973,24.5 46.062,23.639 45.92,22.715 45.545,22.053 L 36.426,5.9473 C 35.82,4.8764 34.331,4 33.117,4 Z"/>
 <path style="opacity:0.2" d="M 19,18 8,30 H 13 L 19,23 25,30 H 30 L 26.652,26.348 29,24 35,30 H 40 L 29,19 23.914,23.359 Z M 18,27 15,30 H 18 Z"/>
 <path style="fill:#ffffff" d="M 19,17 8,29 H 13 L 19,22 25,29 H 30 L 26.652,25.348 29,23 35,29 H 40 L 29,18 23.914,22.359 Z M 18,26 15,29 H 18 Z"/>
</svg>
